svg/u1f98f.svg

<svg viewBox="0 0 128 128" xmlns="http://www.w3.org/2000/svg">
  <path d="M34.38,77.93l-5.82,15.2c0,0,0.28,1.13,2.82,0.84s5.82-2.72,5.82-2.72s3.08-0.08,4.6-0.38 c3.1-0.6,5.4-1.4,5.4-1.4s-0.14,2.15,0.42,3.55s2.91,4.04,2.91,7.51s-3.43,9.55-2.49,11.61c0.94,2.06,3.05,5.28,7.65,5 s10.61-2.53,10.61-2.53s0.94-10.61,0.56-13.61s-3.19-6.66-3.66-7.98c-0.47-1.31-0.47-7.23-0.47-7.23l3.28,1.31 c0,0,19.05,2.72,21.02,2.72s4.6,0.19,4.6,0.19s0.84,2.44,0.84,4.69s-0.84,4.41-2.06,5.44s-2.34,4.06-1.5,5.35 c0.82,1.27,3.1,3.1,8.82,3.1s10.23-1.97,10.23-1.97l-1.69-8.63c0,0-1.88-1.69-2.16-3.19c-0.28-1.5,2.35-9.67,2.35-9.67l15.58-21.68 l-0.38-4.97L64.7,51.28L34.38,77.93z" fill="#40727B"/>
  <path d="M60.94,36.82c0,0,1.97-8.17-1.41-9.01c-3.38-0.84-5.51,3.25-6.29,6.1c-0.59,2.15-0.38,4.79-0.38,4.79 s-2.06-1-4.22-0.93c-1.97,0.06-4.04,0.93-4.04,0.93s-0.09-4.32-1.5-6.85s-3.85-4.69-5.82-4.13c-1.97,0.56-2.64,4.73-1.69,7.6 c1.15,3.47,4.22,5.73,4.22,5.73s-3.75,4.04-4.69,5.54c-0.94,1.5-7.41,11.45-7.41,11.45s-4.79,7.6-6.76,9.2s-9.2,9.48-9.95,12.11 s-1.31,6.48-0.56,9.1c0.54,1.88,1.69,4.13,3.57,5.07c1.88,0.94,2.72,0.19,3.85,0.66c1.13,0.47,3.1,1.78,5.73,1.88 c2.63,0.09,5.1-1.5,5.42-2.03c0.32-0.53,0.77-1.9,1.44-2.6c0.67-0.7,3.98-3.8,4.43-4.26s1.38-0.8,1.83-0.25 c0.55,0.68-1.09,2.08-1.58,2.46s-3.91,2.82-3.41,2.89c0.49,0.07,4.16-1.48,4.92-2.56c0.3-0.42,3.21,0.02,6.87-0.86 s8.62-3.73,9.78-5.1c1.16-1.37,4.08-4.68,5.14-6.58c1.06-1.9,2.82-4.93,3.41-7.92s0.81-4.79,0.92-5.21 c0.11-0.42,0.28-1.13,1.02-0.99s0.84,0.53,0.74,1.44s-0.5,3.37-0.81,4.93c-0.33,1.65-0.63,3.03-1.65,5.14 c-1.02,2.11-2.04,3.41-2.04,3.41s2.32,0.11,5.14-1.79c2.82-1.9,4.15-3.48,5.17-5.14c1.02-1.65,2.01-4.26,2.15-5 c0.14-0.74,0.39-1.16,1.02-1.09s0.74,1.06,0.53,1.76c-0.21,0.7-1.18,3.67-2.24,5.4c-1.06,1.72-3.71,4.53-5.78,5.76 c-2.08,1.23-3.5,1.64-4.38,1.82c-0.88,0.18-2.52,0.4-2.52,0.4s-3.06,2.85-2.82,4.33s1.87,2.11,3.98,2.25 c2.11,0.14,4.68,0.32,5.84,0.92c1.16,0.6,2.15,1.41,2.18,3.24s0.14,3.13-0.56,5.6c-0.7,2.46-1.44,4.36-1.79,5.88 c-0.35,1.51-0.35,2.43-0.35,2.43s-1.76,1.27-3.1,4.61c-1.34,3.34-1.62,6.26-1.23,6.83c0.39,0.56,2.57,3.1,8.8,3.31 c6.23,0.21,9.1-0.4,10.72-0.96c1.51-0.53,2.21-1.89,2.4-2.31c0.67-1.44-0.04-4.54-0.04-5.98s0.11-3.59,0.21-4.12 c0.11-0.53,2.42-2.82,3.31-5.03c1.62-4.05,0.14-11.97,0.42-12.46c0.28-0.49,5.74,0.77,9.54-1.51c3.8-2.29,7.6-8.45,9.43-11.97 c1.83-3.52,3.94-7.25,5.67-9.68c1.72-2.43,4.68-5.81,6.41-5.81c1.72,0,3.45,1.02,2.99,1.94s-2.36-0.42-3.73,0.35 c-1.37,0.77-3.84,3.52-4.89,5.42s-3.55,6.19-4.12,7.36c-0.56,1.16-2.53,5.56-2.53,5.56s-0.46,3.38,0.32,6.62 c0.22,0.9,0.63,2.6,0.46,5c-0.18,2.39-1.58,6.19-2.36,7.81c-0.77,1.62-1.69,4.4-1.48,6.83c0.21,2.43,1.16,3.8,3.38,4.79 c2.22,0.99,9.29,1.15,11.68,0.84c2.22-0.28,4.14-1.01,5-2.46c1.1-1.88,0.98-4.9,0.7-6.05c-0.56-2.32-1.3-2.29-1.41-3.8 s0.63-14.29,0.67-17.98c0.04-3.7,0.97-11.18,0.93-17.8s-1.88-16.51-6.57-22.52c-2.56-3.28-6.57-5.4-9.6-7.58 c-2.81-2.03-4.36-3.38-6.69-3.45c-2.32-0.07-7.53,1.34-11.05,3.59c-3.52,2.25-5.7,2.96-7.04,3.03c-1.34,0.07-6.83-3.8-10.7-4.22 C68.22,32.46,60.94,36.82,60.94,36.82z" fill="#6DA3AF"/>
  <path d="M76.71,79.76c-6.01-0.14-8.96,2.67-10.18,3.99c-1.22,1.31-1.03,1.92-0.56,2.39s1.08-0.14,1.88-0.75 s4.13-3.61,8.82-3.19c4.69,0.42,7.65,2.58,8.68,3.33s2.25,2.35,3,1.55s0.05-1.69-1.13-2.86S81.4,79.87,76.71,79.76z" fill="#40727B"/>
  <ellipse cx="43.68" cy="69.6" fill="#352A2D" rx="4.14" ry="3.3" transform="matrix(0.2732 -0.9619 0.9619 0.2732 -35.2065 92.6037)"/>
  <path d="M25.42,89.43c1.09-0.04,1.74-3.28,2.96-3.89s1.31,0.23,1.97-0.52c0.31-0.35,0.7-3.8-2.58-3.85 s-3.92,4.2-3.85,5.16C24.01,87.64,24.25,89.47,25.42,89.43z" fill="#45494F"/>
  <radialGradient id="SVGID_1_" cx="17.7708" cy="49.3055" gradientUnits="userSpaceOnUse" r="17.3476">
    <stop offset="0.4448" stop-color="#6DA3AF"/>
    <stop offset="0.5973" stop-color="#659AA6"/>
    <stop offset="0.8464" stop-color="#50838D"/>
    <stop offset="1" stop-color="#40727B"/>
  </radialGradient>
  <path d="M21.57,48.6c-0.45-0.15-2.11,3.43-1.97,8.35c0.16,5.45,1.88,9.81,3.28,10.04 s3.61-0.23,5.54-1.74c1.92-1.5,3.24-3.89,3.24-4.69s-3.52-2.11-5.4-4.65C24.06,52.95,22.28,48.84,21.57,48.6z" fill="url(#SVGID_1_)"/>
  <radialGradient id="SVGID_2_" cx="-0.3428" cy="43.0173" gradientUnits="userSpaceOnUse" r="36.0076">
    <stop offset="0.5557" stop-color="#6DA3AF"/>
    <stop offset="0.6547" stop-color="#699EAA"/>
    <stop offset="0.7701" stop-color="#5D919C"/>
    <stop offset="0.8932" stop-color="#487B85"/>
    <stop offset="0.9353" stop-color="#40727B"/>
  </radialGradient>
  <path d="M7.73,43.21c-1.36-0.14-3.72,7.68-3.47,14.03c0.26,6.55,1.88,11.92,2.82,14.78 c0.6,1.82,3.14,7.32,4.08,7.46c1.59,0.24,4.74-0.05,7.51-2.77c3.29-3.23,2.72-8.12,1.69-8.96c-1.81-1.48-4.74-3.52-6.57-7.32 s-3.6-10.48-4.13-12.53C9.18,46.07,8.63,43.3,7.73,43.21z" fill="url(#SVGID_2_)"/>
  <path d="M75.54,113.5c-3.43-0.05-4.04,3.24-4.32,3.24c-0.28,0-0.33-3.24-3.47-3.66s-4.88,4.5-4.88,4.5 s1.24,1.57,7.67,1.99c6,0.39,9.13-0.77,9.13-0.77S79.95,113.56,75.54,113.5z" fill="#A6CDD1"/>
  <path d="M121.41,111.06c0,0-0.73-4.93-4.11-5.11s-4.04,2.53-4.22,2.49c-0.19-0.05,0.14-3.85-4.13-3.94 c-3.14-0.07-5.49,4.55-5.49,4.55s1.17,1.95,3.19,2.67c2.45,0.88,4.6,0.9,7.84,0.94C118.99,112.7,121.41,111.06,121.41,111.06z" fill="#A6CDD1"/>
</svg>

<svg viewBox="0 0 128 128" xmlns="http://www.w3.org/2000/svg">
  <defs>
    <radialGradient id="SVGID_1_" cx="17.7708" cy="49.3055" gradientUnits="userSpaceOnUse" r="17.3476">
      <stop offset="0.4448" stop-color="#6DA3AF"/>
      <stop offset="0.5973" stop-color="#659AA6"/>
      <stop offset="0.8464" stop-color="#50838D"/>
      <stop offset="1" stop-color="#40727B"/>
    </radialGradient>
    <radialGradient id="SVGID_2_" cx="-0.3428" cy="43.0173" gradientUnits="userSpaceOnUse" r="36.0076">
      <stop offset="0.5557" stop-color="#6DA3AF"/>
      <stop offset="0.6547" stop-color="#699EAA"/>
      <stop offset="0.7701" stop-color="#5D919C"/>
      <stop offset="0.8932" stop-color="#487B85"/>
      <stop offset="0.9353" stop-color="#40727B"/>
    </radialGradient>
  </defs>
  <path d="M34.38,77.93 L28.56,93.13 C28.56,93.13 28.84,94.26 31.38,93.97 C33.92,93.68 37.2,91.25 37.2,91.25 C37.2,91.25 40.28,91.17 41.8,90.87 C44.9,90.27 47.2,89.47 47.2,89.47 C47.2,89.47 47.06,91.62 47.62,93.02 C48.18,94.42 50.53,97.06 50.53,100.53 C50.53,104 47.1,110.08 48.04,112.14 C48.98,114.2 51.09,117.42 55.69,117.14 C60.29,116.86 66.3,114.61 66.3,114.61 C66.3,114.61 67.24,104 66.86,101 C66.48,98 63.67,94.34 63.2,93.02 C62.73,91.71 62.73,85.79 62.73,85.79 L66.01,87.1 C66.01,87.1 85.06,89.82 87.03,89.82 C89,89.82 91.63,90.01 91.63,90.01 C91.63,90.01 92.47,92.45 92.47,94.7 C92.47,96.95 91.63,99.11 90.41,100.14 C89.19,101.17 88.07,104.2 88.91,105.49 C89.73,106.76 92.01,108.59 97.73,108.59 C103.45,108.59 107.96,106.62 107.96,106.62 L106.27,97.99 C106.27,97.99 104.39,96.3 104.11,94.8 C103.83,93.3 106.46,85.13 106.46,85.13 L122.04,63.45 L121.66,58.48 L64.7,51.28 L34.38,77.93 Z" fill="#40727B"/>
  <path d="M60.94,36.82 C60.94,36.82 62.91,28.65 59.53,27.81 C56.15,26.97 54.02,31.06 53.24,33.91 C52.65,36.06 52.86,38.7 52.86,38.7 C52.86,38.7 50.8,37.7 48.64,37.77 C46.67,37.83 44.6,38.7 44.6,38.7 C44.6,38.7 44.51,34.38 43.1,31.85 C41.69,29.32 39.25,27.16 37.28,27.72 C35.31,28.28 34.64,32.45 35.59,35.32 C36.74,38.79 39.81,41.05 39.81,41.05 C39.81,41.05 36.06,45.09 35.12,46.59 C34.18,48.09 27.71,58.04 27.71,58.04 C27.71,58.04 22.92,65.64 20.95,67.24 C18.98,68.84 11.75,76.72 11,79.35 C10.25,81.98 9.69,85.83 10.44,88.45 C10.98,90.33 12.13,92.58 14.01,93.52 C15.89,94.46 16.73,93.71 17.86,94.18 C18.99,94.65 20.96,95.96 23.59,96.06 C26.22,96.15 28.69,94.56 29.01,94.03 C29.33,93.5 29.78,92.13 30.45,91.43 C31.12,90.73 34.43,87.63 34.88,87.17 C35.33,86.71 36.26,86.37 36.71,86.92 C37.26,87.6 35.62,89 35.13,89.38 C34.64,89.76 31.22,92.2 31.72,92.27 C32.21,92.34 35.88,90.79 36.64,89.71 C36.94,89.29 39.85,89.73 43.51,88.85 C47.17,87.97 52.13,85.12 53.29,83.75 C54.45,82.38 57.37,79.07 58.43,77.17 C59.49,75.27 61.25,72.24 61.84,69.25 C62.43,66.26 62.65,64.46 62.76,64.04 C62.87,63.62 63.04,62.91 63.78,63.05 C64.52,63.19 64.62,63.58 64.52,64.49 C64.42,65.4 64.02,67.86 63.71,69.42 C63.38,71.07 63.08,72.45 62.06,74.56 C61.04,76.67 60.02,77.97 60.02,77.97 C60.02,77.97 62.34,78.08 65.16,76.18 C67.98,74.28 69.31,72.7 70.33,71.04 C71.35,69.39 72.34,66.78 72.48,66.04 C72.62,65.3 72.87,64.88 73.5,64.95 C74.13,65.02 74.24,66.01 74.03,66.71 C73.82,67.41 72.85,70.38 71.79,72.11 C70.73,73.83 68.08,76.64 66.01,77.87 C63.93,79.1 62.51,79.51 61.63,79.69 C60.75,79.87 59.11,80.09 59.11,80.09 C59.11,80.09 56.05,82.94 56.29,84.42 C56.53,85.9 58.16,86.53 60.27,86.67 C62.38,86.81 64.95,86.99 66.11,87.59 C67.27,88.19 68.26,89 68.29,90.83 C68.32,92.66 68.43,93.96 67.73,96.43 C67.03,98.89 66.29,100.79 65.94,102.31 C65.59,103.82 65.59,104.74 65.59,104.74 C65.59,104.74 63.83,106.01 62.49,109.35 C61.15,112.69 60.87,115.61 61.26,116.18 C61.65,116.74 63.83,119.28 70.06,119.49 C76.29,119.7 79.16,119.09 80.78,118.53 C82.29,118 82.99,116.64 83.18,116.22 C83.85,114.78 83.14,111.68 83.14,110.24 C83.14,108.8 83.25,106.65 83.35,106.12 C83.46,105.59 85.77,103.3 86.66,101.09 C88.28,97.04 86.8,89.12 87.08,88.63 C87.36,88.14 92.82,89.4 96.62,87.12 C100.42,84.83 104.22,78.67 106.05,75.15 C107.88,71.63 109.99,67.9 111.72,65.47 C113.44,63.04 116.4,59.66 118.13,59.66 C119.85,59.66 121.58,60.68 121.12,61.6 C120.66,62.52 118.76,61.18 117.39,61.95 C116.02,62.72 113.55,65.47 112.5,67.37 C111.45,69.27 108.95,73.56 108.38,74.73 C107.82,75.89 105.85,80.29 105.85,80.29 C105.85,80.29 105.39,83.67 106.17,86.91 C106.39,87.81 106.8,89.51 106.63,91.91 C106.45,94.3 105.05,98.1 104.27,99.72 C103.5,101.34 102.58,104.12 102.79,106.55 C103,108.98 103.95,110.35 106.17,111.34 C108.39,112.33 115.46,112.49 117.85,112.18 C120.07,111.9 121.99,111.17 122.85,109.72 C123.95,107.84 123.83,104.82 123.55,103.67 C122.99,101.35 122.25,101.38 122.14,99.87 C122.03,98.36 122.77,85.58 122.81,81.89 C122.85,78.19 123.78,70.71 123.74,64.09 C123.7,57.47 121.86,47.58 117.17,41.57 C114.61,38.29 110.6,36.17 107.57,33.99 C104.76,31.96 103.21,30.61 100.88,30.54 C98.56,30.47 93.35,31.88 89.83,34.13 C86.31,36.38 84.13,37.09 82.79,37.16 C81.45,37.23 75.96,33.36 72.09,32.94 C68.22,32.46 60.94,36.82 60.94,36.82 Z" fill="#6DA3AF"/>
  <path d="M76.71,79.76 C70.7,79.62 67.75,82.43 66.53,83.75 C65.31,85.06 65.5,85.67 65.97,86.14 C66.44,86.61 67.05,86 67.85,85.39 C68.65,84.78 71.98,81.78 76.67,82.2 C81.36,82.62 84.32,84.78 85.35,85.53 C86.38,86.28 87.6,87.88 88.35,87.08 C89.1,86.28 88.4,85.39 87.22,84.22 C86.04,83.05 81.4,79.87 76.71,79.76 Z" fill="#40727B"/>
  <path d="M44.806,65.62 C46.559,66.118 47.474,68.305 46.849,70.504 C46.225,72.704 44.297,74.083 42.544,73.585 C40.791,73.087 39.876,70.9 40.501,68.701 C41.126,66.502 43.053,65.122 44.806,65.62 Z" fill="#352A2D"/>
  <path d="M25.42,89.43 C26.51,89.39 27.16,86.15 28.38,85.54 C29.6,84.93 29.69,85.77 30.35,85.02 C30.66,84.67 31.05,81.22 27.77,81.17 C24.49,81.12 23.85,85.37 23.92,86.33 C24.01,87.64 24.25,89.47 25.42,89.43 Z" fill="#45494F"/>
  <path d="M21.57,48.6 C21.12,48.45 19.46,52.03 19.6,56.95 C19.76,62.4 21.48,66.76 22.88,66.99 C24.28,67.22 26.49,66.76 28.42,65.25 C30.34,63.75 31.66,61.36 31.66,60.56 C31.66,59.76 28.14,58.45 26.26,55.91 C24.06,52.95 22.28,48.84 21.57,48.6 Z" fill="url(#SVGID_1_)"/>
  <path d="M7.73,43.21 C6.37,43.07 4.01,50.89 4.26,57.24 C4.52,63.79 6.14,69.16 7.08,72.02 C7.68,73.84 10.22,79.34 11.16,79.48 C12.75,79.72 15.9,79.43 18.67,76.71 C21.96,73.48 21.39,68.59 20.36,67.75 C18.55,66.27 15.62,64.23 13.79,60.43 C11.96,56.63 10.19,49.95 9.66,47.9 C9.18,46.07 8.63,43.3 7.73,43.21 Z" fill="url(#SVGID_2_)"/>
  <path d="M75.54,113.5 C72.11,113.45 71.5,116.74 71.22,116.74 C70.94,116.74 70.89,113.5 67.75,113.08 C64.61,112.66 62.87,117.58 62.87,117.58 C62.87,117.58 64.11,119.15 70.54,119.57 C76.54,119.96 79.67,118.8 79.67,118.8 C79.67,118.8 79.95,113.56 75.54,113.5 Z" fill="#A6CDD1"/>
  <path d="M121.41,111.06 C121.41,111.06 120.68,106.13 117.3,105.95 C113.92,105.77 113.26,108.48 113.08,108.44 C112.89,108.39 113.22,104.59 108.95,104.5 C105.81,104.43 103.46,109.05 103.46,109.05 C103.46,109.05 104.63,111 106.65,111.72 C109.1,112.6 111.25,112.62 114.49,112.66 C118.99,112.7 121.41,111.06 121.41,111.06 Z" fill="#A6CDD1"/>
</svg>
